web/cobrands/fixmystreet.com/images/fms-for-councils/bringyourown.svg

<svg width="72" height="72" viewBox="0 0 72 72" xmlns="http://www.w3.org/2000/svg"><title>bringyourown</title><g fill="#E65376" fill-rule="evenodd"><path d="M58.325 56.036H54.18c-.957 0-1.728.773-1.728 1.727 0 .954.77 1.727 1.728 1.727h4.145c.952 0 1.725-.773 1.725-1.727 0-.954-.773-1.727-1.725-1.727M47.96 56.036H43.82c-.956 0-1.73.773-1.73 1.727 0 .954.774 1.727 1.73 1.727h4.143c.956 0 1.73-.773 1.73-1.727 0-.954-.774-1.727-1.73-1.727M27.236 56.036H23.09c-.952 0-1.725.773-1.725 1.727 0 .954.773 1.727 1.726 1.727h4.146c.955 0 1.727-.773 1.727-1.727 0-.954-.772-1.727-1.727-1.727M16.873 56.036H12.73c-.954 0-1.73.773-1.73 1.727 0 .954.776 1.727 1.73 1.727h4.143c.954 0 1.727-.773 1.727-1.727 0-.954-.773-1.727-1.727-1.727M25.127 41.04v-4.135c2.596 1.472 6.656 2.23 10.687 2.23 4.033 0 8.092-.76 10.688-2.23v4.135c0 1.146-3.984 3.24-10.507 3.28-.127-.038-.642-.04-.76-.01-6.28-.12-10.108-2.147-10.108-3.27zm21.375-23.96c0 1.16-4.055 3.283-10.688 3.283-6.63 0-10.687-2.124-10.687-3.282 0-1.157 4.058-3.282 10.687-3.282 6.633 0 10.688 2.125 10.688 3.283zM25.127 28.92c2.596 1.47 6.656 2.23 10.687 2.23 4.033 0 8.092-.76 10.688-2.232v4.135c0 1.158-4.055 3.283-10.688 3.283-6.63 0-10.687-2.125-10.687-3.283V28.92zm0-7.988c2.596 1.472 6.656 2.23 10.687 2.23 4.033 0 8.092-.76 10.688-2.23v4.134c0 1.158-4.055 3.284-10.688 3.284-6.63 0-10.687-2.126-10.687-3.284v-4.134zM37 55.352v-8.254c6.294-.232 12.302-2.303 12.302-6.058V17.132l-.002-.018.002-.033c0-3.99-6.784-6.08-13.488-6.08-6.7 0-13.484 2.09-13.484 6.08v23.96c0 3.67 5.74 5.73 11.872 6.038v8.274c-.834.485-1.402 1.378-1.402 2.41 0 1.544 1.257 2.8 2.8 2.8 1.545 0 2.802-1.256 2.802-2.8 0-1.032-.568-1.925-1.4-2.41z"/></g></svg>

<?xml version="1.0" encoding="UTF-8" standalone="no"?>
<svg width="72px" height="72px" viewBox="0 0 72 72" version="1.1" xmlns="http://www.w3.org/2000/svg" xmlns:xlink="http://www.w3.org/1999/xlink">
    <!-- Generator: Sketch 39.1 (31720) - http://www.bohemiancoding.com/sketch -->
    <title>bringyourown</title>
    <desc>Created with Sketch.</desc>
    <defs></defs>
    <g id="Page-1" stroke="none" stroke-width="1" fill="none" fill-rule="evenodd">
        <g id="bringyourown" fill="#E65376">
            <path d="M58.325,56.036 L54.18,56.036 C53.223,56.036 52.452,56.809 52.452,57.763 C52.452,58.717 53.223,59.49 54.18,59.49 L58.325,59.49 C59.277,59.49 60.05,58.717 60.05,57.763 C60.05,56.809 59.277,56.036 58.325,56.036" id="Fill-252"></path>
            <path d="M47.961,56.036 L43.818,56.036 C42.862,56.036 42.089,56.809 42.089,57.763 C42.089,58.717 42.862,59.49 43.818,59.49 L47.961,59.49 C48.916,59.49 49.689,58.717 49.689,57.763 C49.689,56.809 48.916,56.036 47.961,56.036" id="Fill-253"></path>
            <path d="M27.236,56.036 L23.091,56.036 C22.138,56.036 21.365,56.809 21.365,57.763 C21.365,58.717 22.138,59.49 23.091,59.49 L27.236,59.49 C28.191,59.49 28.963,58.717 28.963,57.763 C28.963,56.809 28.191,56.036 27.236,56.036" id="Fill-254"></path>
            <path d="M16.873,56.036 L12.73,56.036 C11.776,56.036 11,56.809 11,57.763 C11,58.717 11.776,59.49 12.73,59.49 L16.873,59.49 C17.827,59.49 18.6,58.717 18.6,57.763 C18.6,56.809 17.827,56.036 16.873,56.036" id="Fill-255"></path>
            <path d="M25.127,41.04 L25.127,36.905 C27.723,38.377 31.783,39.134 35.814,39.134 C39.847,39.134 43.906,38.376 46.502,36.905 L46.502,41.04 C46.502,42.186 42.518,44.28 35.995,44.319 C35.868,44.282 35.353,44.279 35.235,44.311 C28.954,44.19 25.127,42.163 25.127,41.04 L25.127,41.04 Z M46.502,17.081 C46.502,18.239 42.447,20.363 35.814,20.363 C29.185,20.363 25.127,18.239 25.127,17.081 C25.127,15.923 29.185,13.798 35.814,13.798 C42.447,13.798 46.502,15.923 46.502,17.081 L46.502,17.081 Z M25.127,28.919 C27.723,30.391 31.783,31.149 35.814,31.149 C39.847,31.149 43.906,30.391 46.502,28.918 L46.502,33.053 C46.502,34.211 42.447,36.336 35.814,36.336 C29.185,36.336 25.127,34.211 25.127,33.053 L25.127,28.919 L25.127,28.919 Z M25.127,20.932 C27.723,22.404 31.783,23.161 35.814,23.161 C39.847,23.161 43.906,22.403 46.502,20.932 L46.502,25.066 C46.502,26.224 42.447,28.35 35.814,28.35 C29.185,28.35 25.127,26.224 25.127,25.066 L25.127,20.932 L25.127,20.932 Z M37.001,55.352 L37.001,47.098 C43.294,46.866 49.302,44.795 49.302,41.04 L49.302,17.132 C49.302,17.126 49.3,17.12 49.3,17.114 C49.3,17.102 49.302,17.092 49.302,17.081 C49.302,13.089 42.518,11 35.814,11 C29.113,11 22.33,13.089 22.33,17.081 L22.33,17.114 L22.33,17.132 L22.33,41.04 C22.33,44.711 28.069,46.771 34.202,47.078 L34.202,55.352 C33.368,55.837 32.8,56.73 32.8,57.762 C32.8,59.306 34.057,60.563 35.601,60.563 C37.145,60.563 38.402,59.306 38.402,57.762 C38.402,56.73 37.834,55.837 37.001,55.352 L37.001,55.352 Z" id="Fill-256"></path>
        </g>
    </g>
</svg>
